resources/svg/aggregate.svg

<svg xmlns="http://www.w3.org/2000/svg" viewBox="0 0 24 24" fill="currentColor"><path fill="none" stroke="currentColor" stroke-width="2" d="M16,9 L9,9 L9,16 L9,16 C9,19.8659932 12.1340068,23 16,23 L16,23 C19.8659932,23 23,19.8659932 23,16 C23,12.1340068 19.8659932,9 16,9 L16,9 Z M8,15 L15,15 L15,8 L15,8 C15,4.13400675 11.8659932,1 8,1 L8,1 C4.13400675,1 1,4.13400675 1,8 C1,11.8659932 4.13400675,15 8,15 L8,15 Z" transform="rotate(180 12 12)"/></svg>

<svg viewBox="0 0 24 24"><path fill="none" stroke="currentColor" stroke-width="2" d="M8 15h7V8h0a7 7 0 0 0-7-7h0a7 7 0 0 0 0 14h0zm8-6H9v7h0a7 7 0 0 0 7 7h0a7 7 0 1 0 0-14h0z"/></svg>
